src/lib/packages/icons/src/assets/line/shopping-basket-arrow-up.svg

<svg width="24" height="24" viewBox="0 0 24 24" fill="none" xmlns="http://www.w3.org/2000/svg">
<path d="M21.75 9C21.75 7.483 20.517 6.25 19 6.25H16.917L14.755 2.616C14.543 2.262 14.0831 2.142 13.7271 2.355C13.3721 2.567 13.2539 3.027 13.4659 3.383L15.171 6.24899H9.02002L10.751 3.387C10.966 3.033 10.852 2.572 10.498 2.357C10.141 2.142 9.68202 2.256 9.46802 2.61L7.26697 6.248H5C3.483 6.248 2.25 7.481 2.25 8.998C2.25 10.087 2.89101 11.022 3.81201 11.467L4.50195 18.371C4.72895 20.643 5.94903 21.748 8.23303 21.748H15.803C18.087 21.748 19.3081 20.644 19.5341 18.371L20.226 11.446C21.126 10.995 21.75 10.073 21.75 9ZM5 7.75H19C19.689 7.75 20.25 8.311 20.25 9C20.25 9.689 19.689 10.25 19 10.25H5C4.311 10.25 3.75 9.689 3.75 9C3.75 8.311 4.311 7.75 5 7.75ZM18.043 18.224C17.914 19.507 17.507 20.25 15.804 20.25H8.23401C6.52201 20.25 6.127 19.538 5.995 18.224L5.34802 11.75H18.691L18.043 18.224ZM14.03 14.97C14.323 15.263 14.323 15.738 14.03 16.031C13.884 16.177 13.692 16.251 13.5 16.251C13.308 16.251 13.116 16.178 12.97 16.031L12.75 15.811V18C12.75 18.414 12.414 18.75 12 18.75C11.586 18.75 11.25 18.414 11.25 18V15.811L11.03 16.031C10.737 16.324 10.262 16.324 9.96899 16.031C9.67599 15.738 9.67599 15.263 9.96899 14.97L11.469 13.47C11.538 13.401 11.621 13.346 11.713 13.308C11.896 13.232 12.103 13.232 12.286 13.308C12.378 13.346 12.461 13.401 12.53 13.47L14.03 14.97Z" fill="currentColor"/>
</svg>

<svg xmlns="http://www.w3.org/2000/svg" width="24" height="24" fill="none"><path fill="currentColor" d="M21.75 9A2.752 2.752 0 0 0 19 6.25h-2.083l-2.162-3.634a.75.75 0 0 0-1.29.767l1.706 2.866H9.02l1.731-2.862a.75.75 0 0 0-1.283-.777L7.267 6.248H5a2.752 2.752 0 0 0-2.75 2.75c0 1.089.641 2.024 1.562 2.469l.69 6.904c.227 2.272 1.447 3.377 3.731 3.377h7.57c2.284 0 3.505-1.104 3.731-3.377l.692-6.925A2.738 2.738 0 0 0 21.75 9ZM5 7.75h14c.689 0 1.25.561 1.25 1.25s-.561 1.25-1.25 1.25H5c-.689 0-1.25-.561-1.25-1.25S4.311 7.75 5 7.75Zm13.043 10.474c-.129 1.283-.536 2.026-2.239 2.026h-7.57c-1.712 0-2.107-.712-2.239-2.026l-.647-6.474h13.343l-.648 6.474ZM14.03 14.97a.75.75 0 0 1-1.06 1.061l-.22-.22V18a.75.75 0 0 1-1.5 0v-2.189l-.22.22a.75.75 0 1 1-1.061-1.061l1.5-1.5a.749.749 0 0 1 .817-.162.749.749 0 0 1 .244.162l1.5 1.5Z"/></svg>
